X:129
T:Planxty D.C. Fitzgerald
R:planxty
C: 2006, 2010 L.E. McCullough 
M:4/4
L:1/8
K:Dmajor
DE|:~F3E FEDE|FABA d3B|~A3B defd|~e3f edBA|
~F3E FEDE|FABA d3B|~A3B defd|1~e3c d2DE:|2~e3c d2de|| 
||~f3d gfed|eAAG ABde|~f3d gafe|fedc d3A|
BGGF GA (3Bcd|cAAG A2de|~f3d gafe|dBBA B2AG|
F~A3 BAEF|G~B3 gfed|ceAB gfed|~e3c d4|| 
<end>
<start>
